T: Cloone, The
M: 4/4
L: 1/8
K: Cmaj
dcAE ~G3A|GEcE ~G3c|dcAE ~G3A|GEcGE D~D2|!dcAE ~G3A|GEcE ~G3A|c2ec ~g3e|dcAG ED~D2:||!c2ec gcec|~g3a gede|c2ec gceg|gedc AGEG|!c2ec gcec|~g3a gedg|gedc ~d2ed|cAGE ED~D2:||!
